X: 1
T: Klezmer Polka 1    [F]
S: From John Cannon 2016-1-3
R: polka
M: 2/4
L: 1/16
K: F
|:\
C4 F2A2 | ^G2A2 B3A | ^GAB2- BAGA |\
[1,3 FGAB c=Bc2 :|[2 F8 :|[4 F6 c2 ||
|:\
=Bcd_e d3c | fcAc B3A | ^GAB2- BAGA |\
[1,3 FGAB c=Bc2 :|[2 F6 c2 :|4 F6 E2 ||
|:\
D3F A2d2 | cBAB G3F | EFG2- GFEF | DEFG A^GA2 |
(^ce)d2 DFAd | cBAB G3F | EFG2- GFEF | D8 :|
